Sources/FrostedUI/Resources/Icons.xcassets/thumbUp16.imageset/thumb-up-16.svg

<svg width="16" height="16" viewBox="0 0 16 16" fill="none" xmlns="http://www.w3.org/2000/svg" data-fui-icon="true">
  <path
    d="M7.74023 1.08301C9.01628 1.08301 9.9989 2.22177 9.80176 3.4873L9.55273 5.08301H12.1719C13.8554 5.08301 15.1437 6.58278 14.8906 8.24707L14.333 11.9131C14.1286 13.2566 12.9733 14.25 11.6143 14.25H2.5C1.71778 14.2498 1.08301 13.6153 1.08301 12.833V7.83301C1.08321 7.05088 1.7179 6.41621 2.5 6.41602H4.12793L6.48047 1.85059L6.58203 1.68262C6.84551 1.3094 7.27707 1.08316 7.74023 1.08301ZM2.58301 12.75H3.75V7.91602H2.58301V12.75ZM5.25 7.51367V12.75H11.6143C12.232 12.75 12.7567 12.2982 12.8496 11.6875L13.4082 8.02148C13.5231 7.26509 12.9371 6.58301 12.1719 6.58301H8.67676C8.45792 6.58281 8.24976 6.48657 8.10742 6.32031C7.96539 6.15406 7.90197 5.93386 7.93555 5.71777L8.31934 3.25586C8.37135 2.92018 8.12374 2.61439 7.78711 2.58789L5.25 7.51367Z"
    fill="currentColor"
  />
</svg>

<svg xmlns="http://www.w3.org/2000/svg" width="16" height="16" fill="none" data-fui-icon="true" viewBox="0 0 16 16"><path fill="currentColor" d="M7.74 1.083a2.086 2.086 0 0 1 2.062 2.404l-.25 1.596h2.62a2.75 2.75 0 0 1 2.719 3.164l-.558 3.666a2.75 2.75 0 0 1-2.719 2.337H2.5a1.42 1.42 0 0 1-1.417-1.417v-5c0-.782.635-1.417 1.417-1.417h1.628L6.48 1.851l.102-.168a1.42 1.42 0 0 1 1.158-.6M2.583 12.75H3.75V7.916H2.583zM5.25 7.514v5.236h6.364a1.25 1.25 0 0 0 1.236-1.062l.558-3.667a1.25 1.25 0 0 0-1.236-1.438H8.677a.75.75 0 0 1-.741-.865l.383-2.462a.583.583 0 0 0-.532-.668z"/></svg>
